; generated by PrusaSlicer 2.9.4 on 2026-01-11 at 17:46:03 UTC


;
;

;
;
; 

; external perimeters extrusion width = 0.45mm
; perimeters extrusion width = 0.45mm
; infill extrusion width = 0.45mm
; solid infill extrusion width = 0.45mm
; top infill extrusion width = 0.42mm
; support material extrusion width = 0.45mm
; first layer extrusion width = 0.50mm

;TYPE:Custom
G90 ; use absolute coordinates

M83 ; extruder relative mode
M104 S220 ; set extruder temp

M140 S60 ; set bed temp

M190 S60 ; wait for bed temp

M109 S220 ; wait for extruder temp

G28                                        ; move X/Y/Z to min endstops

G1 Z0.28                                   ; lift nozzle a bit 

G92 E0 
G1 Y3 F1800                                    ; zero the extruded length 

G1 X60  E25 F500                       ; Extrude 25mm of filament in a 5cm line. 

G92 E0                                     ; zero the extruded length again 
G1 E-2 F500                                ; Retract a little 

G1 X70 F4000                              ; Quickly wipe away from the filament line

M117
G21 ; set units to millimeters
G90 ; use absolute coordinates
M82 ; use absolute distances for extrusion
G92 E0
M107
;LAYER_CHANGE
;Z:0.24
;HEIGHT:0.24
G1 E-3.5 F7200
G92 E0
G1 Z.24 F9000
G92 E0
G1 X111.869 Y124.017
G1 E3.5 F7200
M204 S5000
;TYPE:External perimeter
;WIDTH:0.499999
G1 F3600
G1 X111.942 Y124.071 E3.50398
G1 X112.308 Y124.723 E3.53677
;WIDTH:0.499883
G1 X112.671 Y125.292 E3.56636
G1 X112.982 Y125.92 E3.59709
G1 X113.212 Y126.589 E3.62811
G1 X113.351 Y127.281 E3.65906
G1 X113.399 Y127.985 E3.69
G1 X113.355 Y128.69 E3.72097
G1 X113.219 Y129.383 E3.75193
G1 X112.993 Y130.053 E3.78293
G1 X112.683 Y130.687 E3.81387
G1 X112.293 Y131.275 E3.84481
G1 X111.828 Y131.807 E3.87579
G1 X111.299 Y132.275 E3.90676
G1 X110.712 Y132.668 E3.93773
G1 X110.08 Y132.982 E3.96867
G1 X109.411 Y133.212 E3.99969
G1 X108.719 Y133.351 E4.03064
G1 X108.015 Y133.399 E4.06158
G1 X107.31 Y133.355 E4.09255
G1 X106.617 Y133.219 E4.12351
G1 X105.947 Y132.993 E4.15451
G1 X105.313 Y132.683 E4.18545
G1 X104.725 Y132.293 E4.21639
G1 X104.193 Y131.828 E4.24737
G1 X103.725 Y131.299 E4.27834
G1 X103.332 Y130.712 E4.30931
G1 X103.018 Y130.08 E4.34025
G1 X102.788 Y129.411 E4.37127
G1 X102.649 Y128.719 E4.40222
G1 X102.601 Y128.015 E4.43316
;WIDTH:0.499864
G1 X102.645 Y127.31 E4.46413
G1 X102.781 Y126.617 E4.49509
G1 X103.007 Y125.947 E4.52609
G1 X103.317 Y125.313 E4.55703
G1 X103.598 Y124.873 E4.57992
;WIDTH:0.499999
G1 X104.115 Y124.006 E4.62419
G1 X104.65 Y123.864 E4.64847
G1 X105.335 Y123.763 E4.67884
G1 X110.639 Y123.761 E4.91145
G1 X111.147 Y123.82 E4.93388
G1 X111.795 Y123.963 E4.96298
G1 X111.821 Y123.982 E4.96439
M204 S10000
G1 X112.062 Y124.3 F9000
G1 X112.833 Y124.295
M204 S5000
G1 F3600
G1 X112.76 Y124.403 E4.97011
G1 X112.74 Y124.557 E4.97692
;WIDTH:0.496616
G1 X112.773 Y124.632 E4.98049
;WIDTH:0.499831
G1 X113.085 Y125.115 E5.0057
G1 X113.418 Y125.803 E5.03921
G1 X113.659 Y126.53 E5.07279
G1 X113.802 Y127.28 E5.10626
G1 X113.847 Y128.044 E5.13981
G1 X113.791 Y128.807 E5.17335
G1 X113.636 Y129.556 E5.20688
G1 X113.384 Y130.278 E5.2404
G1 X113.041 Y130.961 E5.27391
G1 X112.612 Y131.594 E5.30743
G1 X112.103 Y132.165 E5.34096
G1 X111.524 Y132.666 E5.37453
G1 X110.885 Y133.085 E5.40803
G1 X110.197 Y133.418 E5.44154
G1 X109.47 Y133.659 E5.47512
G1 X108.72 Y133.802 E5.50859
G1 X107.956 Y133.847 E5.54214
G1 X107.193 Y133.791 E5.57568
G1 X106.444 Y133.636 E5.60921
G1 X105.722 Y133.384 E5.64273
G1 X105.039 Y133.041 E5.67624
G1 X104.406 Y132.612 E5.70976
G1 X103.835 Y132.103 E5.74329
G1 X103.334 Y131.524 E5.77686
G1 X102.915 Y130.885 E5.81036
G1 X102.582 Y130.197 E5.84387
G1 X102.341 Y129.47 E5.87745
G1 X102.198 Y128.72 E5.91092
G1 X102.153 Y127.956 E5.94447
G1 X102.209 Y127.193 E5.97801
G1 X102.364 Y126.444 E6.01154
G1 X102.616 Y125.722 E6.04506
;WIDTH:0.499999
G1 X102.953 Y125.047 E6.07815
G1 X103.26 Y124.557 E6.10351
G1 X103.24 Y124.403 E6.11032
G1 X103.157 Y124.247 E6.11807
G1 X103.048 Y124.147 E6.12456
G1 X102.419 Y123.879 E6.15454
G1 X101.879 Y123.77 E6.1787
G1 X101.37 Y123.751 E6.20104
G1 X60.75 Y123.75 E7.98247
G1 X60.75 Y85.25 E9.67093
G1 X159.25 Y85.25 E13.99075
G1 X159.25 Y123.75 E15.67921
G1 X115.127 Y123.75 E17.61427
G1 X114.084 Y123.775 E17.66002
G1 X113.537 Y123.893 E17.68456
G1 X112.922 Y124.162 E17.714
G1 X112.866 Y124.245 E17.71839
M204 S10000
G1 X112.795 Y124.639 F9000
G1 X112.448 Y124.035
M204 S5000
;TYPE:Perimeter
G1 F3600
G1 X112.332 Y123.851 E17.72793
G1 X112.165 Y123.655 E17.73922
G1 X111.893 Y123.525 E17.75244
G1 X111.2 Y123.374 E17.78355
G1 X110.64 Y123.313 E17.80825
G1 X106.318 Y123.301 E17.9978
G1 X105.282 Y123.317 E18.04324
G1 X104.552 Y123.426 E18.07561
G1 X104.042 Y123.543 E18.09856
G1 X103.762 Y123.723 E18.11316
G1 X103.564 Y124.036 E18.1294
G1 X103.438 Y123.88 E18.13819
G1 X103.227 Y123.735 E18.14942
G1 X102.511 Y123.44 E18.18338
G1 X101.896 Y123.322 E18.21084
G1 X101.37 Y123.303 E18.23392
G1 X61.198 Y123.302 E19.9957
G1 X61.198 Y85.698 E21.64486
G1 X158.802 Y85.698 E25.92538
G1 X158.802 Y123.302 E27.57454
G1 X115.121 Y123.302 E29.49021
G1 X113.993 Y123.336 E29.5397
G1 X113.359 Y123.482 E29.56823
G1 X112.684 Y123.782 E29.60062
G1 X112.489 Y123.992 E29.61319
M204 S10000
G1 X112.513 Y123.367 F9000
M204 S5000
G1 F3600
G1 X112.444 Y123.304 E29.61729
G1 X111.99 Y123.087 E29.63936
G1 X111.253 Y122.929 E29.67242
G1 X110.641 Y122.864 E29.69941
G1 X106.315 Y122.853 E29.88913
G1 X105.23 Y122.872 E29.93672
G1 X104.455 Y122.988 E29.97109
G1 X103.9 Y123.118 E29.99609
G1 X103.488 Y123.367 E30.0172
G1 X102.819 Y123.07 E30.0493
G1 X102.42 Y122.963 E30.06742
G1 X101.913 Y122.874 E30.08999
G1 X101.37 Y122.854 E30.11382
G1 X61.647 Y122.853 E31.85591
G1 X61.647 Y86.147 E33.46569
G1 X158.353 Y86.147 E37.70683
G1 X158.353 Y122.853 E39.31661
G1 X115.113 Y122.853 E41.21294
G1 X113.902 Y122.897 E41.26608
G1 X113.181 Y123.07 E41.2986
G1 X112.567 Y123.343 E41.32807
M204 S10000
G1 E37.82807 F7200
G92 E0
G1 X61.782 Y121.809 F9000
G1 E3.5 F7200
M204 S5000
;TYPE:Solid infill
;WIDTH:0.501357
G1 F3600
G1 X62.489 Y122.517 E3.54401
G1 X63.126 Y122.517 E3.57203
G1 X61.983 Y121.375 E3.6431
G1 X61.983 Y120.738 E3.67112
G1 X63.762 Y122.517 E3.78179
G1 X64.398 Y122.517 E3.80977
G1 X61.983 Y120.102 E3.96001
G1 X61.983 Y119.466 E3.98799
G1 X65.034 Y122.517 E4.17779
G1 X65.67 Y122.517 E4.20577
G1 X61.983 Y118.83 E4.43514
G1 X61.983 Y118.194 E4.46312
G1 X66.307 Y122.517 E4.73208
G1 X66.943 Y122.517 E4.76006
G1 X61.983 Y117.557 E5.06862
G1 X61.983 Y116.921 E5.0966
G1 X67.579 Y122.517 E5.44472
G1 X68.215 Y122.517 E5.4727
G1 X61.983 Y116.285 E5.86039
G1 X61.983 Y115.649 E5.88837
G1 X68.851 Y122.517 E6.31563
G1 X69.488 Y122.517 E6.34365
G1 X61.983 Y115.013 E6.8105
G1 X61.983 Y114.376 E6.83852
G1 X70.124 Y122.517 E7.34497
G1 X70.76 Y122.517 E7.37295
G1 X61.983 Y113.74 E7.91896
G1 X61.983 Y113.104 E7.94694
G1 X71.396 Y122.517 E8.53252
G1 X72.032 Y122.517 E8.5605
G1 X61.983 Y112.468 E9.18564
G1 X61.983 Y111.832 E9.21362
G1 X72.669 Y122.517 E9.87836
G1 X73.305 Y122.517 E9.90634
G1 X61.983 Y111.196 E10.61065
G1 X61.983 Y110.559 E10.63867
G1 X73.941 Y122.517 E11.38257
G1 X74.577 Y122.517 E11.41055
G1 X61.983 Y109.923 E12.19402
G1 X61.983 Y109.287 E12.222
G1 X75.214 Y122.517 E13.04506
G1 X75.85 Y122.517 E13.07304
G1 X61.983 Y108.651 E13.93567
G1 X61.983 Y108.015 E13.96365
G1 X76.486 Y122.517 E14.86584
G1 X77.122 Y122.517 E14.89382
G1 X61.983 Y107.378 E15.83561
G1 X61.983 Y106.742 E15.86359
G1 X77.758 Y122.517 E16.84495
G1 X78.395 Y122.517 E16.87297
G1 X61.983 Y106.106 E17.89392
G1 X61.983 Y105.47 E17.9219
G1 X79.031 Y122.517 E18.98242
G1 X79.667 Y122.517 E19.0104
G1 X61.983 Y104.834 E20.11048
G1 X61.983 Y104.197 E20.1385
G1 X80.303 Y122.517 E21.27818
G1 X80.939 Y122.517 E21.30616
G1 X61.983 Y103.561 E22.4854
G1 X61.983 Y102.925 E22.51338
G1 X81.576 Y122.517 E23.73222
G1 X82.212 Y122.517 E23.7602
G1 X61.983 Y102.289 E25.01861
G1 X61.983 Y101.653 E25.04659
G1 X82.848 Y122.517 E26.34456
G1 X83.484 Y122.517 E26.37254
G1 X61.983 Y101.017 E27.71008
G1 X61.983 Y100.38 E27.7381
G1 X84.12 Y122.517 E29.11523
G1 X84.757 Y122.517 E29.14325
G1 X61.983 Y99.744 E30.55998
G1 X61.983 Y99.108 E30.58796
G1 X85.393 Y122.517 E32.04425
G1 X86.029 Y122.517 E32.07223
G1 X61.983 Y98.472 E33.56809
G1 X61.983 Y97.836 E33.59607
G1 X86.665 Y122.517 E35.13149
G1 X87.301 Y122.517 E35.15947
G1 X61.983 Y97.199 E36.73449
G1 X61.983 Y96.563 E36.76247
G1 X87.938 Y122.517 E38.37709
G1 X88.574 Y122.518 E38.40507
G1 X61.983 Y95.927 E40.05928
G1 X61.983 Y95.291 E40.08726
G1 X89.21 Y122.518 E41.78104
G1 X89.846 Y122.518 E41.80902
G1 X61.983 Y94.655 E43.54236
G1 X61.983 Y94.018 E43.57038
G1 X90.482 Y122.518 E45.34332
G1 X91.119 Y122.518 E45.37134
G1 X61.983 Y93.382 E47.18388
G1 X61.983 Y92.746 E47.21186
G1 X91.755 Y122.518 E49.06396
G1 X92.391 Y122.518 E49.09194
G1 X61.983 Y92.11 E50.98361
G1 X61.983 Y91.474 E51.01159
G1 X93.027 Y122.518 E52.94282
G1 X93.664 Y122.518 E52.97084
G1 X61.983 Y90.837 E54.9417
G1 X61.983 Y90.201 E54.96968
G1 X94.3 Y122.518 E56.98011
G1 X94.936 Y122.518 E57.00809
G1 X61.983 Y89.565 E59.05808
G1 X61.983 Y88.929 E59.08606
G1 X95.572 Y122.518 E61.17562
G1 X96.208 Y122.518 E61.2036
G1 X61.983 Y88.293 E63.33272
G1 X61.983 Y87.657 E63.3607
G1 X96.845 Y122.518 E65.52942
G1 X97.481 Y122.518 E65.5574
G1 X61.983 Y87.02 E67.76571
G1 X61.983 Y86.483 E67.78933
G1 X62.083 Y86.483 E67.79373
G1 X98.117 Y122.518 E70.03542
G1 X98.753 Y122.518 E70.0634
G1 X62.719 Y86.483 E72.30509
G1 X63.355 Y86.483 E72.33307
G1 X99.389 Y122.518 E74.57476
G1 X100.026 Y122.518 E74.60278
G1 X63.991 Y86.483 E76.8445
G1 X64.627 Y86.483 E76.87248
G1 X100.662 Y122.518 E79.1142
G1 X101.298 Y122.518 E79.14218
G1 X65.263 Y86.483 E81.3839
G1 X65.9 Y86.483 E81.41192
G1 X101.959 Y122.543 E83.65516
G1 X102.746 Y122.693 E83.6904
G1 X66.536 Y86.483 E85.94301
G1 X67.172 Y86.483 E85.97099
G1 X103.594 Y122.905 E88.23679
G1 X103.79 Y122.799 E88.24659
G1 X104.061 Y122.737 E88.25882
G1 X67.808 Y86.483 E90.51413
G1 X68.444 Y86.483 E90.54211
G1 X104.579 Y122.618 E92.79005
G1 X105.143 Y122.546 E92.81506
G1 X69.081 Y86.483 E95.05849
G1 X69.717 Y86.483 E95.08647
G1 X105.757 Y122.524 E97.32853
G1 X106.387 Y122.517 E97.35624
G1 X70.353 Y86.483 E99.5979
G1 X70.989 Y86.483 E99.62588
G1 X107.025 Y122.519 E101.86766
G1 X107.664 Y122.522 E101.89577
G1 X71.625 Y86.483 E104.13774
G1 X72.262 Y86.483 E104.16576
G1 X108.302 Y122.524 E106.40782
G1 X108.941 Y122.527 E106.43593
G1 X72.898 Y86.483 E108.67818
G1 X73.534 Y86.483 E108.70616
G1 X109.58 Y122.529 E110.94856
G1 X110.218 Y122.531 E110.97662
G1 X74.17 Y86.483 E113.21915
G1 X74.806 Y86.483 E113.24713
G1 X110.868 Y122.545 E115.49053
G1 X111.371 Y122.606 E115.51282
G1 X111.621 Y122.662 E115.52409
G1 X75.443 Y86.483 E117.77474
G1 X76.079 Y86.483 E117.80272
G1 X112.566 Y122.971 E120.07259
G1 X113.013 Y122.782 E120.09394
G1 X76.715 Y86.483 E122.35205
G1 X77.351 Y86.483 E122.38003
G1 X113.507 Y122.639 E124.62928
G1 X113.862 Y122.562 E124.64526
G1 X114.046 Y122.542 E124.6534
G1 X77.987 Y86.483 E126.89661
G1 X78.623 Y86.483 E126.92459
G1 X114.666 Y122.526 E129.16681
G1 X115.293 Y122.517 E129.19439
G1 X79.26 Y86.483 E131.43602
G1 X79.896 Y86.483 E131.464
G1 X115.929 Y122.517 E133.70563
G1 X116.566 Y122.517 E133.73365
G1 X80.532 Y86.483 E135.97531
G1 X81.168 Y86.483 E136.00329
G1 X117.202 Y122.517 E138.24495
G1 X117.838 Y122.517 E138.27293
G1 X81.804 Y86.483 E140.51459
G1 X82.441 Y86.483 E140.54261
G1 X118.474 Y122.517 E142.78424
G1 X119.11 Y122.517 E142.81222
G1 X83.077 Y86.483 E145.05385
G1 X83.713 Y86.483 E145.08183
G1 X119.746 Y122.517 E147.32346
G1 X120.383 Y122.517 E147.35148
G1 X84.349 Y86.483 E149.59314
G1 X84.985 Y86.483 E149.62112
G1 X121.019 Y122.517 E151.86278
G1 X121.655 Y122.517 E151.89076
G1 X85.622 Y86.483 E154.13239
G1 X86.258 Y86.483 E154.16037
G1 X122.291 Y122.517 E156.402
G1 X122.927 Y122.517 E156.42998
G1 X86.894 Y86.483 E158.67161
G1 X87.53 Y86.483 E158.69959
G1 X123.564 Y122.517 E160.94125
G1 X124.2 Y122.517 E160.96923
G1 X88.166 Y86.483 E163.21089
G1 X88.802 Y86.483 E163.23887
G1 X124.836 Y122.517 E165.48053
G1 X125.472 Y122.517 E165.50851
G1 X89.439 Y86.483 E167.75014
G1 X90.075 Y86.483 E167.77812
G1 X126.108 Y122.517 E170.01975
G1 X126.744 Y122.517 E170.04773
G1 X90.711 Y86.483 E172.28936
G1 X91.347 Y86.483 E172.31734
G1 X127.381 Y122.517 E174.559
G1 X128.017 Y122.517 E174.58698
G1 X91.983 Y86.483 E176.82864
G1 X92.62 Y86.483 E176.85666
G1 X128.653 Y122.517 E179.09829
G1 X129.289 Y122.517 E179.12627
G1 X93.256 Y86.483 E181.3679
G1 X93.892 Y86.483 E181.39588
G1 X129.925 Y122.517 E183.63751
G1 X130.562 Y122.517 E183.66553
G1 X94.528 Y86.483 E185.90719
G1 X95.164 Y86.483 E185.93517
G1 X131.198 Y122.517 E188.17683
G1 X131.834 Y122.517 E188.20481
G1 X95.801 Y86.483 E190.44644
G1 X96.437 Y86.483 E190.47442
G1 X132.47 Y122.517 E192.71605
G1 X133.106 Y122.517 E192.74403
G1 X97.073 Y86.483 E194.98566
G1 X97.709 Y86.483 E195.01364
G1 X133.743 Y122.517 E197.2553
G1 X134.379 Y122.517 E197.28328
G1 X98.345 Y86.483 E199.52494
G1 X98.981 Y86.483 E199.55292
G1 X135.015 Y122.517 E201.79458
G1 X135.651 Y122.517 E201.82256
G1 X99.618 Y86.483 E204.06419
G1 X100.254 Y86.483 E204.09217
G1 X136.287 Y122.517 E206.3338
G1 X136.923 Y122.517 E206.36178
G1 X100.89 Y86.483 E208.60341
G1 X101.526 Y86.483 E208.63139
G1 X137.56 Y122.517 E210.87305
G1 X138.196 Y122.517 E210.90103
G1 X102.162 Y86.483 E213.14269
G1 X102.799 Y86.483 E213.17071
G1 X138.832 Y122.517 E215.41234
G1 X139.468 Y122.517 E215.44032
G1 X103.435 Y86.483 E217.68195
G1 X104.071 Y86.483 E217.70993
G1 X140.104 Y122.517 E219.95156
G1 X140.741 Y122.517 E219.97958
G1 X104.707 Y86.483 E222.22124
G1 X105.343 Y86.483 E222.24922
G1 X141.377 Y122.517 E224.49088
G1 X142.013 Y122.517 E224.51886
G1 X105.98 Y86.483 E226.76049
G1 X106.616 Y86.483 E226.78847
G1 X142.649 Y122.517 E229.0301
G1 X143.285 Y122.517 E229.05808
G1 X107.252 Y86.483 E231.29971
G1 X107.888 Y86.483 E231.32769
G1 X143.921 Y122.517 E233.56932
G1 X144.558 Y122.517 E233.59734
G1 X108.524 Y86.483 E235.839
G1 X109.16 Y86.483 E235.86698
G1 X145.194 Y122.517 E238.10864
G1 X145.83 Y122.517 E238.13662
G1 X109.797 Y86.483 E240.37825
G1 X110.433 Y86.483 E240.40623
G1 X146.466 Y122.517 E242.64786
G1 X147.102 Y122.517 E242.67584
G1 X111.069 Y86.483 E244.91747
G1 X111.705 Y86.483 E244.94545
G1 X147.739 Y122.517 E247.18711
G1 X148.375 Y122.517 E247.21509
G1 X112.341 Y86.483 E249.45675
G1 X112.978 Y86.483 E249.48477
G1 X149.011 Y122.517 E251.7264
G1 X149.647 Y122.517 E251.75438
G1 X113.614 Y86.483 E253.99601
G1 X114.25 Y86.483 E254.02399
G1 X150.283 Y122.517 E256.26562
G1 X150.919 Y122.517 E256.2936
G1 X114.886 Y86.483 E258.53523
G1 X115.522 Y86.483 E258.56321
G1 X151.556 Y122.517 E260.80487
G1 X152.192 Y122.517 E260.83285
G1 X116.159 Y86.483 E263.07448
G1 X116.795 Y86.483 E263.10246
G1 X152.828 Y122.517 E265.34409
G1 X153.464 Y122.517 E265.37207
G1 X117.431 Y86.483 E267.6137
G1 X118.067 Y86.483 E267.64168
G1 X154.1 Y122.517 E269.88331
G1 X154.737 Y122.517 E269.91133
G1 X118.703 Y86.483 E272.15299
G1 X119.339 Y86.483 E272.18097
G1 X155.373 Y122.517 E274.42263
G1 X156.009 Y122.517 E274.45061
G1 X119.976 Y86.483 E276.69224
G1 X120.612 Y86.483 E276.72022
G1 X156.645 Y122.517 E278.96185
G1 X157.281 Y122.517 E278.98983
G1 X121.248 Y86.483 E281.23146
G1 X121.884 Y86.483 E281.25944
G1 X157.918 Y122.517 E283.5011
G1 X158.017 Y122.517 E283.50545
G1 X158.017 Y121.98 E283.52907
G1 X122.52 Y86.483 E285.73732
G1 X123.157 Y86.483 E285.76534
G1 X158.017 Y121.343 E287.93396
G1 X158.017 Y120.707 E287.96194
G1 X123.793 Y86.483 E290.091
G1 X124.429 Y86.483 E290.11898
G1 X158.017 Y120.071 E292.20847
G1 X158.017 Y119.435 E292.23645
G1 X125.065 Y86.483 E294.28638
G1 X125.701 Y86.483 E294.31436
G1 X158.017 Y118.799 E296.32472
G1 X158.017 Y118.162 E296.35274
G1 X126.338 Y86.483 E298.32348
G1 X126.974 Y86.483 E298.35146
G1 X158.017 Y117.526 E300.28263
G1 X158.017 Y116.89 E300.31061
G1 X127.61 Y86.483 E302.20222
G1 X128.246 Y86.483 E302.2302
G1 X158.017 Y116.254 E304.08224
G1 X158.017 Y115.618 E304.11022
G1 X128.882 Y86.483 E305.92269
